polaris-icons/icons/newicons/CircleCancelMajor.svg

<svg width="20" height="20" viewBox="0 0 20 20" fill="none" xmlns="http://www.w3.org/2000/svg">
<path d="M13.5303 6.46967C13.8232 6.76256 13.8232 7.23744 13.5303 7.53033L11.0607 10L13.5303 12.4697C13.8232 12.7626 13.8232 13.2374 13.5303 13.5303C13.2374 13.8232 12.7626 13.8232 12.4697 13.5303L10 11.0607L7.53033 13.5303C7.23744 13.8232 6.76256 13.8232 6.46967 13.5303C6.17678 13.2374 6.17678 12.7626 6.46967 12.4697L8.93934 10L6.46967 7.53033C6.17678 7.23744 6.17678 6.76256 6.46967 6.46967C6.76256 6.17678 7.23744 6.17678 7.53033 6.46967L10 8.93934L12.4697 6.46967C12.7626 6.17678 13.2374 6.17678 13.5303 6.46967Z" fill="black"/>
<path fill-rule="evenodd" clip-rule="evenodd" d="M10 18C14.4183 18 18 14.4183 18 10C18 5.58172 14.4183 2 10 2C5.58172 2 2 5.58172 2 10C2 14.4183 5.58172 18 10 18ZM10 16.5C13.5899 16.5 16.5 13.5899 16.5 10C16.5 6.41015 13.5899 3.5 10 3.5C6.41015 3.5 3.5 6.41015 3.5 10C3.5 13.5899 6.41015 16.5 10 16.5Z" fill="black"/>
</svg>

<svg viewBox="0 0 20 20" fill="none" xmlns="http://www.w3.org/2000/svg"><path d="M13.53 6.47a.75.75 0 0 1 0 1.06l-2.47 2.47 2.47 2.47a.75.75 0 1 1-1.06 1.06l-2.47-2.47-2.47 2.47a.75.75 0 0 1-1.06-1.06l2.47-2.47-2.47-2.47a.75.75 0 0 1 1.06-1.06l2.47 2.47 2.47-2.47a.75.75 0 0 1 1.06 0Z" fill="#000"/><path fill-rule="evenodd" clip-rule="evenodd" d="M10 18a8 8 0 1 0 0-16 8 8 0 0 0 0 16Zm0-1.5a6.5 6.5 0 1 0 0-13 6.5 6.5 0 0 0 0 13Z" fill="#000"/></svg>
